includes/public/svg/flags/lbn.svg

<?xml version="1.0" encoding="UTF-8"?>
<svg xmlns="http://www.w3.org/2000/svg" xmlns:xlink="http://www.w3.org/1999/xlink" width="750" height="500">
<rect fill="#ed1c24" width="750" height="500"/>
<rect fill="#fff" y="125" width="750" height="250"/>  
<path fill="#00a651" d="M 371.5894,125 C 366.22315,136.2997 356.11736,144.19789 346.45832,151.67157 C 344.86925,153.05938 340.91845,155.74726 343.78458,157.79271 C 346.24017,155.04836 352.97951,158.68259 349.06268,161.63346 C 345.55402,164.9176 340.72308,166.12 336.82746,168.82984 C 333.37726,170.7043 329.87796,172.66173 327.14196,175.53105 C 326.95559,180.0135 332.70358,177.53219 335.03612,179.3996 C 338.07363,182.64705 333.74816,188.12133 329.76182,186.86927 C 324.66471,187.02546 321.14438,191.51029 319.21689,195.78908 C 315.22977,201.95458 307.67448,203.78032 301.65953,207.28899 C 298.21778,209.29528 294.87854,211.51505 291.6746,213.85608 C 287.54383,216.68042 291.13754,222.27234 295.53278,220.89972 C 300.27728,220.4267 304.54592,216.69896 309.45786,217.77316 C 313.91254,219.33833 315.16278,225.16012 313.64459,229.22483 C 312.52055,232.47922 309.79569,234.77154 307.6125,237.31372 C 304.06844,240.90414 299.43359,243.23508 294.54641,244.34656 C 289.82305,245.93241 285.57789,248.826 282.47971,252.73228 C 278.88376,256.35224 275.30219,260.03085 271.1692,263.04934 C 269.86365,266.38067 273.54807,269.21835 276.6199,269.12991 C 283.09222,268.72234 287.57797,263.42506 293.09028,260.70292 C 297.66461,258.64703 303.04806,263.57727 301.92906,268.34281 C 301.57508,272.97905 297.23424,275.33164 293.37475,276.75816 C 282.02885,282.4619 272.1777,290.73284 263.43076,299.85875 C 261.62169,303.54889 256.64826,302.46257 253.97025,305.03499 C 252.22562,308.29039 256.60402,310.00685 259.21608,309.67223 C 270.44112,308.32214 280.91539,303.57761 290.83812,298.3575 C 294.52819,296.59322 297.99323,294.27138 301.82962,292.86533 C 305.43319,291.97509 310.45809,293.54159 311.10283,297.64287 C 311.09773,301.97233 306.80857,304.37035 303.4117,306.06172 C 292.93651,311.56524 281.44052,314.60765 270.24434,318.24607 C 266.05289,317.07424 262.89523,324.53141 267.49329,325.87225 C 272.3554,327.53952 277.52429,326.20279 282.49779,325.98426 C 297.87642,323.62817 311.32634,315.30653 325.70163,309.9273 C 331.67794,307.97923 338.73226,310.6978 341.68165,316.29776 C 344.64481,321.28931 344.37398,327.85334 341.24819,332.70293 C 336.30834,343.27146 328.79833,352.98464 318.7165,359.0613 C 312.38812,362.19434 305.00126,363.39297 299.57757,368.18972 C 294.56146,369.8432 302.09226,376.62136 303.18084,371.24168 C 306.19505,367.13063 311.51128,365.90189 316.33356,365.73205 C 323.58078,364.94312 331.27713,363.60631 336.9083,358.58922 C 341.95671,354.66896 346.93162,349.26076 353.78678,349.17636 C 357.57531,349.62563 361.32238,352.66984 365.17025,350.81231 C 368.53626,349.27162 373.81755,350.17444 374.69678,354.31369 C 376.30415,359.15581 381.29505,361.35894 385.25295,363.95016 C 386.68557,365.96192 391.44596,371.15043 392.54374,366.57601 C 391.65792,363.31338 392.92361,358.32091 397.20351,359.41116 C 400.94191,359.57808 404.50446,360.95653 408.23564,361.18262 C 413.20452,362.21183 417.34927,365.6135 420.17071,369.72085 C 422.11167,372.40126 426.36333,377.00677 429.52222,373.45251 C 431.48249,369.77666 427.74062,366.71103 424.69446,365.39845 C 420.25243,362.64573 416.45462,358.97987 412.57076,355.50887 C 406.84653,350.16275 401.90235,343.36292 400.99374,335.37635 C 399.76199,327.41308 400.4102,319.29095 401.44945,311.34932 C 402.75741,306.23638 409.29554,303.44506 413.86725,306.16167 C 420.30003,309.09681 426.68843,313.29666 434.06328,312.84127 C 444.72,313.07089 455.67072,311.03044 466.08536,314.11859 C 476.21984,317.31095 483.46556,325.86344 493.33765,329.56419 C 495.54761,330.90725 498.37484,329.62908 499.18462,327.26866 C 500.16303,325.1476 499.47268,322.43378 497.42896,321.22499 C 485.98778,309.67613 470.35146,304.06569 457.11353,295.04126 C 452.94587,293.98288 452.18706,287.27769 456.03973,285.34185 C 461.10528,281.66065 468.2721,283.37428 472.76607,287.16972 C 476.56118,289.39278 480.8368,291.05827 485.2894,291.06224 C 489.85029,289.63448 487.63912,283.03469 483.55544,282.53841 C 476.15622,278.36058 470.8569,271.50481 464.44632,266.0718 C 460.75559,262.94683 456.716,259.78287 451.7557,259.17634 C 449.04451,258.68263 446.27094,258.57459 443.52394,258.75896 C 440.9476,255.95914 444.38123,251.67208 447.71241,252.02262 C 451.1308,252.25288 454.52965,252.50697 457.94359,252.03127 C 461.75876,251.75176 465.57064,251.35683 469.39939,251.33063 C 472.48995,253.43534 478.66583,249.7996 475.87651,246.17083 C 472.82951,243.50085 468.42334,243.73277 464.78211,242.36257 C 458.38547,240.26395 451.87572,238.56782 445.28454,237.23756 C 440.67325,236.9626 441.242,230.89376 445.29497,230.22441 C 447.94739,229.23496 450.25279,231.27278 452.79892,231.5887 C 457.14735,232.52313 461.63683,232.51113 465.9831,233.45849 C 469.66816,231.63935 466.81948,226.2555 463.48593,225.94179 C 455.62045,223.12924 448.82304,218.05295 442.17788,213.11487 C 434.84116,207.59721 428.18494,201.21633 420.75826,195.82617 C 418.06357,194.15628 413.64683,193.67534 412.93795,189.97462 C 412.68795,186.57015 416.69529,185.01965 419.53592,185.81559 C 423.56634,187.00583 427.32195,189.07846 431.42972,190.09605 C 434.65252,190.64375 437.97545,191.59738 441.08179,191.19126 C 445.02496,188.71371 439.39058,187.13019 437.35122,186.27058 C 432.0938,183.43513 427.42242,179.65733 422.69107,176.0548 C 418.69278,172.64193 426.08234,171.13414 428.62427,172.44822 C 432.87417,174.22617 433.35847,168.03333 430.18167,166.47498 C 426.43855,164.88338 423.2196,162.24124 419.82552,159.93707 C 413.69304,155.57159 406.74727,152.1159 399.20847,151.156 C 390.75634,150.3067 382.86721,145.44628 378.38327,138.21818 C 375.60269,134.09908 373.56207,129.54384 371.5894,125 z M 343.8321,172.41771 C 348.18843,172.54695 347.51872,180.39793 343.22983,179.87413 C 339.06481,179.60609 339.31972,171.57429 343.8321,172.41771 z M 384.92234,176.64564 C 389.16127,175.88738 390.05889,183.62274 385.82379,183.98589 C 381.41121,184.77575 379.7758,176.15615 384.92234,176.64564 z M 372.88731,177.65384 C 377.18466,178.49924 376.42021,185.98556 372.08328,186.05098 C 368.91022,186.75752 365.49025,188.92314 362.28008,187.30008 C 359.66952,184.53908 363.44271,180.45635 366.35676,179.55883 C 368.59191,179.10829 370.64832,178.09344 372.88731,177.65384 z M 400.58563,177.68637 C 404.72688,179.19709 403.26629,186.50778 398.8981,186.41459 C 394.76724,186.96811 392.84357,180.07706 396.6956,178.44266 C 397.9426,178.00052 399.24903,177.62794 400.58563,177.68637 z M 353.8613,185.97958 C 356.90649,188.87754 355.10789,194.47009 351.35311,195.80715 C 348.64664,197.31266 344.95682,200.87381 342.00892,197.94369 C 340.40943,194.36455 344.42423,191.66946 346.78572,189.68283 C 348.89329,188.04409 351.21909,186.55653 353.8613,185.97958 z M 388.63905,202.14325 C 392.99893,204.2019 390.78574,212.05909 386.00062,211.57069 C 382.07061,210.57486 382.58371,203.83444 386.54227,203.29678 C 387.29055,203.01039 387.9769,202.58881 388.63905,202.14325 z M 374.80463,202.92376 C 378.88224,204.83283 375.76886,211.63754 371.6618,210.657 C 367.40345,210.15691 367.48196,202.67024 372.17815,203.34611 C 373.06305,203.30222 373.97688,203.27971 374.80463,202.92376 z M 404.62678,206.82647 C 409.096,205.43963 414.4766,210.04402 413.02612,214.71319 C 411.03543,218.33295 406.10946,218.79124 402.58121,217.43842 C 398.52983,217.23842 395.80478,211.1478 399.41404,208.56875 C 400.90756,207.44072 402.79022,206.97715 404.62678,206.82647 z M 338.611,207.99725 C 342.30631,205.98682 346.22984,212.02929 343.08717,214.69451 C 341.00551,217.75492 335.66012,219.00525 333.30317,215.60189 C 331.34505,212.27783 334.51104,206.69321 338.611,207.99725 z M 321.56135,210.85925 C 325.75319,211.43274 328.48457,215.24015 330.03376,218.86551 C 330.41193,223.28362 323.89286,225.70783 321.04899,222.49331 C 317.85114,220.48713 315.05191,216.36132 316.72839,212.53213 C 317.76131,211.0116 319.81909,210.38426 321.56135,210.85925 z M 423.56431,226.82777 C 428.11364,225.62888 431.41652,232.89939 427.51018,235.52953 C 423.93847,238.77373 416.99376,234.47573 418.85644,229.84687 C 419.78218,228.1308 421.63401,226.99026 423.56431,226.82777 z M 365.66037,235.121 C 369.47498,235.6068 368.2391,242.21814 364.71192,241.99623 C 360.92636,241.29454 361.79307,234.74813 365.66037,235.121 z M 346.3099,238.6334 C 349.42124,236.43197 353.434,241.80509 350.84595,244.3089 C 347.74396,246.49354 343.72032,241.20565 346.3099,238.6334 z M 377.07598,239.28385 C 380.68235,241.47514 382.82338,245.56095 383.27166,249.68389 C 381.54334,253.53578 374.86866,252.60724 374.11615,248.50531 C 372.79639,245.26124 374.01269,241.08758 377.07598,239.28385 z M 387.81313,245.65826 C 392.46055,244.49084 390.79279,254.20485 386.91238,250.83545 C 385.62285,249.30414 386.31349,246.78444 387.81313,245.65826 z M 320.38146,252.42293 C 323.45884,251.52156 327.94465,252.46899 328.7941,256.00085 C 329.15292,259.32013 325.5028,261.04696 322.8282,261.86956 C 318.54137,263.19231 314.34875,265.36394 309.73883,265.07221 C 306.28351,263.09729 305.04323,259.05585 303.81128,255.53103 C 307.14601,252.40445 312.05643,253.32163 316.19018,252.53906 C 317.58613,252.4675 318.98379,252.43346 320.38146,252.42293 z M 424.98018,267.64343 C 428.90575,265.71883 433.12728,271.9498 429.84137,274.86023 C 425.73054,279.59171 417.81599,280.47093 412.90065,276.49605 C 412.30974,272.3088 416.49236,269.26764 420.20768,268.66669 C 421.77056,268.22519 423.32385,267.56559 424.98018,267.64343 z M 447.04443,272.42422 C 451.50464,271.6566 455.01805,278.01951 451.83272,281.3126 C 448.81821,285.85801 441.62942,287.05014 437.51912,283.32422 C 435.91659,279.55585 439.16741,275.62934 442.62728,274.42031 C 444.11438,273.78742 445.52241,272.97626 447.04443,272.42422 z M 336.10372,279.1889 C 340.23431,278.78128 344.01843,282.87955 343.47633,286.95187 C 346.46651,289.89444 341.17144,295.37643 338.19238,292.32933 C 335.56714,289.14836 335.58095,284.83298 334.56407,281.02604 C 334.51857,280.18042 335.14459,279.08508 336.10372,279.1889 z M 367.81369,281.56305 C 372.08402,279.7168 377.60876,284.82551 375.28387,289.15052 C 373.6236,292.67309 367.14833,291.4924 367.3635,287.41217 C 367.35245,285.46035 367.19489,283.45856 367.81369,281.56305 z M 352.38642,284.32743 C 356.66836,283.34572 360.59695,288.89644 358.21743,292.60021 C 353.94846,292.97974 351.73219,287.9133 352.38642,284.32743 z"/>
</svg>

<svg xmlns="http://www.w3.org/2000/svg" width="750" height="500"><path fill="#ed1c24" d="M0 0h750v500H0z"/><path fill="#fff" d="M0 125h750v250H0z"/><path fill="#00a651" d="M371.59 125c-5.367 11.3-15.473 19.198-25.132 26.672-1.59 1.387-5.54 4.075-2.673 6.12 2.455-2.744 9.195.89 5.278 3.84-3.51 3.286-8.34 4.488-12.236 7.198-3.45 1.874-6.95 3.832-9.685 6.7-.186 4.483 5.562 2.002 7.894 3.87 3.038 3.247-1.288 8.72-5.274 7.47-5.097.155-8.618 4.64-10.545 8.92-3.987 6.165-11.543 7.99-17.557 11.5-3.442 2.005-6.78 4.225-9.985 6.566-4.13 2.824-.537 8.416 3.858 7.044 4.744-.473 9.013-4.2 13.925-3.127 4.455 1.565 5.705 7.387 4.187 11.452-1.124 3.254-3.85 5.547-6.032 8.09-3.545 3.59-8.18 5.92-13.067 7.032-4.723 1.585-8.968 4.48-12.066 8.385-3.596 3.62-7.178 7.3-11.31 10.317-1.306 3.33 2.378 6.168 5.45 6.08 6.472-.408 10.958-5.705 16.47-8.427 4.575-2.056 9.958 2.874 8.84 7.64-.355 4.636-4.696 6.99-8.555 8.415-11.346 5.704-21.197 13.975-29.944 23.1-1.808 3.69-6.782 2.605-9.46 5.177-1.744 3.255 2.634 4.972 5.246 4.637 11.225-1.35 21.7-6.094 31.622-11.315 3.69-1.764 7.155-4.086 10.992-5.492 3.603-.89 8.628.677 9.273 4.778-.005 4.33-4.294 6.727-7.69 8.42-10.476 5.502-21.972 8.545-33.17 12.183-4.19-1.172-7.348 6.285-2.75 7.626 4.862 1.668 10.03.33 15.005.112 15.378-2.356 28.828-10.677 43.204-16.057 5.976-1.948 13.03.77 15.98 6.37 2.963 4.992 2.692 11.556-.434 16.406-4.94 10.568-12.45 20.282-22.53 26.358-6.33 3.134-13.717 4.333-19.14 9.13-5.017 1.653 2.514 8.43 3.603 3.052 3.015-4.11 8.33-5.34 13.154-5.51 7.247-.79 14.943-2.126 20.574-7.143 5.05-3.92 10.024-9.33 16.88-9.414 3.787.45 7.534 3.494 11.382 1.636 3.366-1.54 8.648-.638 9.527 3.502 1.607 4.842 6.598 7.045 10.556 9.636 1.433 2.012 6.193 7.2 7.29 2.626-.885-3.263.38-8.255 4.66-7.165 3.74.168 7.3 1.547 11.033 1.773 4.97 1.03 9.113 4.43 11.935 8.538 1.942 2.68 6.193 7.287 9.352 3.733 1.96-3.676-1.78-6.742-4.828-8.055-4.442-2.752-8.24-6.418-12.123-9.89-5.723-5.345-10.668-12.145-11.576-20.132-1.232-7.963-.584-16.085.455-24.027 1.307-5.114 7.846-7.905 12.417-5.188 6.433 2.935 12.82 7.135 20.196 6.68 10.657.23 21.608-1.812 32.022 1.277 10.135 3.19 17.38 11.743 27.253 15.444 2.21 1.343 5.037.065 5.847-2.295.978-2.122.288-4.836-1.756-6.045-11.442-11.55-27.08-17.16-40.316-26.184-4.168-1.057-4.927-7.762-1.074-9.698 5.065-3.68 12.232-1.968 16.726 1.828 3.795 2.223 8.07 3.888 12.523 3.892 4.56-1.428 2.35-8.027-1.735-8.524-7.4-4.177-12.698-11.033-19.11-16.466-3.69-3.125-7.73-6.29-12.69-6.896-2.71-.493-5.484-.6-8.23-.417-2.577-2.8.856-7.088 4.187-6.737 3.42.23 6.818.484 10.232.008 3.815-.278 7.627-.673 11.455-.7 3.09 2.105 9.266-1.53 6.477-5.16-3.047-2.67-7.454-2.437-11.095-3.807-6.397-2.1-12.906-3.795-19.497-5.125-4.612-.275-4.043-6.344.01-7.014 2.652-.99 4.958 1.05 7.504 1.365 4.347.933 8.837.92 13.183 1.868 3.685-1.82.836-7.202-2.497-7.516-7.866-2.813-14.663-7.89-21.308-12.827-7.337-5.518-13.993-11.9-21.42-17.29-2.694-1.67-7.11-2.15-7.82-5.85-.25-3.405 3.757-4.955 6.598-4.16 4.03 1.19 7.786 3.263 11.894 4.28 3.223.55 6.545 1.502 9.652 1.096 3.943-2.476-1.69-4.06-3.73-4.92-5.258-2.835-9.93-6.613-14.66-10.215-4-3.413 3.39-4.92 5.932-3.607 4.25 1.778 4.734-4.415 1.558-5.973-3.743-1.592-6.962-4.234-10.356-6.538-6.133-4.365-13.08-7.82-20.618-8.78-8.452-.85-16.34-5.71-20.825-12.94-2.78-4.118-4.82-8.673-6.794-13.217zm-27.758 47.418c4.356.13 3.687 7.98-.602 7.456-4.165-.268-3.91-8.3.602-7.456zm41.09 4.228c4.24-.76 5.137 6.977.902 7.34-4.413.79-6.048-7.83-.902-7.34zm-12.035 1.008c4.298.845 3.533 8.332-.804 8.397-3.173.708-6.593 2.873-9.803 1.25-2.61-2.76 1.163-6.844 4.077-7.74 2.235-.452 4.29-1.467 6.53-1.906zm27.7.032c4.14 1.51 2.68 8.822-1.69 8.73-4.13.552-6.053-6.34-2.2-7.973 1.246-.442 2.552-.815 3.89-.757zm-46.726 8.294c3.046 2.898 1.248 8.49-2.507 9.827-2.706 1.506-6.396 5.067-9.344 2.137-1.6-3.58 2.414-6.275 4.776-8.26 2.107-1.64 4.433-3.127 7.075-3.704zm34.78 16.163c4.36 2.06 2.146 9.916-2.64 9.428-3.93-.995-3.416-7.736.542-8.273.75-.287 1.435-.708 2.097-1.154zm-13.835.78c4.077 1.91.964 8.715-3.143 7.734-4.26-.5-4.18-7.987.516-7.31.885-.045 1.8-.067 2.627-.423zm29.822 3.903c4.47-1.386 9.85 3.218 8.4 7.887-1.992 3.62-6.918 4.078-10.446 2.725-4.05-.2-6.775-6.29-3.166-8.87 1.494-1.127 3.376-1.59 5.213-1.742zm-66.016 1.17c3.696-2.01 7.62 4.033 4.477 6.7-2.08 3.06-7.427 4.31-9.784.906-1.958-3.324 1.208-8.91 5.308-7.605zm-17.05 2.863c4.193.573 6.925 4.38 8.474 8.006.378 4.418-6.14 6.842-8.985 3.627-3.2-2.006-5.998-6.132-4.322-9.96 1.033-1.52 3.09-2.15 4.833-1.674zm102.004 15.968c4.55-1.2 7.853 6.07 3.946 8.702-3.572 3.244-10.516-1.054-8.654-5.683.926-1.716 2.778-2.857 4.708-3.02zm-57.904 8.293c3.815.487 2.58 7.098-.948 6.876-3.786-.7-2.92-7.248.948-6.875zm-19.35 3.513c3.11-2.2 7.124 3.172 4.536 5.676-3.102 2.184-7.126-3.104-4.536-5.677zm30.766.65c3.606 2.192 5.747 6.278 6.196 10.4-1.73 3.853-8.403 2.924-9.156-1.178-1.32-3.244-.103-7.417 2.96-9.22zm10.737 6.375c4.648-1.167 2.98 8.547-.9 5.177-1.29-1.53-.6-4.05.9-5.177zm-67.432 6.765c3.08-.9 7.565.046 8.414 3.578.36 3.32-3.29 5.047-5.966 5.87-4.287 1.322-8.48 3.494-13.09 3.202-3.454-1.975-4.695-6.016-5.927-9.54 3.336-3.128 8.246-2.21 12.38-2.993 1.396-.072 2.794-.107 4.19-.117zm104.6 15.22c3.926-1.924 8.147 4.307 4.86 7.217-4.11 4.732-12.024 5.61-16.94 1.636-.59-4.187 3.592-7.228 7.308-7.83 1.563-.44 3.116-1.1 4.772-1.023zm22.064 4.78c4.46-.766 7.974 5.597 4.79 8.89-3.016 4.545-10.205 5.737-14.315 2.01-1.603-3.767 1.647-7.694 5.107-8.903 1.487-.633 2.895-1.444 4.417-1.996zm-110.94 6.766c4.13-.41 7.914 3.69 7.372 7.762 2.99 2.942-2.305 8.424-5.284 5.377-2.625-3.182-2.61-7.497-3.628-11.304-.045-.846.58-1.94 1.54-1.837zm31.71 2.373c4.27-1.846 9.795 3.263 7.47 7.588-1.66 3.523-8.136 2.342-7.92-1.738-.012-1.952-.17-3.953.45-5.85zm-15.428 2.764c4.282-.98 8.21 4.57 5.83 8.273-4.268.38-6.484-4.687-5.83-8.273z"/></svg>
